X: 1
T: Auld Lang Syne (Song)
O: Trad
P: Robert Burns
Z: John Chambers <jc:trillian.mit.edu>
M: C
L: 1/4
K: F
"C7"C \
| "F"F>E FA | "Gm"G>F "C7"G(A/G/) | "F"F>F "Dm"A"C"c |
w: Should auld ac-quain-tance be for-got, and_ ne-ver brought to
| "Bb"d3 d | "F"c>A "Dm"AF | "Gm"G>F "C"G"A7"(A/G/) |
w: mind? Should auld ac-quain-tance be for-got, and_
| "Dm"F>D "C7"DC | "F"F2- HF "Bb"d | "F"(c>A) "Dm"(AF) |
w: days of auld lang syne?_ For auld_ lang_
| "Gm"G>F "C9"Gd | "F"(c>A) (Ac) | "Bb"d3 "Gm"d |
w: syne, my dear, for auld_ lang_ syne, We'll
| "F"c>A "Dm"AF | "Gm"G>F "C"G"A7"(A/G/) | "Dm"(F>D) "C7"(DC) |
w: tak' a cup o' kind-ness yet, for_ auld_ lang_
| "F"F2- F || "C7"C | "F"F>E FA | "Gm"G>F "C7"G(A/G/) |
w: syne.  And Here's a hand, my trus-ty fiere, and_
| "F"F>F Ac | "Bb"d2 dd | "F"(c>A) "Dm"AF |
w: gie's a hand o' thine; and we'll tak' a right guid
| "Gm"G>F "C"G"A7"(A/G/) | "Dm"(F>D) "C7"(DC) | "F"F2- HF |]
w: wil-lie-waugh for_ auld_ lang_ syne.
P: Polka
M: 2/4
L: 1/4
"C7"d \
| "F"c>A | A F | "Gm"G> F | G "C9"d | "F"c> A | Ac | "Bb"d- d- | "Gm"d "C7"d |
| "F"c>A | "Dm"A F | "Gm"G> F | "C7"G "A7"A/G/ | "Dm"F> D | "Bb"D "C7"C | "F"F- F- | F |]
